X:3269
L:1/8
M:6/8
K:D
 D | E>FD F>GF | A>BA{de} f2 d | dBF G>AB | A>GF FED | D>ED A>BA | ded{fg} a2 f | f<dA9/4 B/c/d | 
 A>BA F D2 :: F2 G A d2 | f>ed e<AA | F<Af e2 d | c2 d eAA | F2 d{d} c2 B | A2{ef} g{g} f2 e |1 
 f>ed B>cd | A>BA F D2 :|2 f>ga B>cd | A>BA F D2 :|

